X:1
T:What Must It Be to Be There!
T:J. M. Kieffer, 1871
T:What Must It Be to Be There!
T:Public Domain
T:Public Domain
T:Public Domain
C:J. M. Kieffer, 1871
Z:Public Domain
%%score ( 1 2 ) ( 3 4 )
L:1/8
M:4/4
K:Eb
V:1 treble 
V:2 treble 
V:3 bass 
V:4 bass 
V:1
 (E>F) | [EG]2 [EG]>[EG] [FA]2 [EG]>[DF] | [EG]6 (G>A) | [EB]2 [EB]>[EB] [FA]2 [EG]>[EG] | %4
w: 1.~We *|of the realms of the blessed,|That count- *|so bright and so fair, And|
w: 2.~We *|of its path- ways of gold,|Its walls *|with jew- els so rare; Its|
w: 3.~We *|of its free- dom from sin,|From sor- *|tempt- a- tion and care, From|
w: 4.~We *|of its peace and its love,|The robes *|the glo- ri- fied wear; The|
 [DF]6 ([EG]>[FA]) | [GB]2 [GB]>[GB] [Ge]2 [GB]>[GB] | [Ac]6 [Ac]2 | %7
w: oft are *|its glo- ries con- fessed, But|what must|
w: won- ders *|and plea- sures un- told, But|what must|
w: tri- als *|with- out and with- in; But|what must|
w: songs of *|the bless- èd a- bove, But|what must|
 [GB]2 [GB]>[GB] ([GB][FA]) [EG]>[DF] | [EG]6 ||"^Refrain" [GB]2 | %10
w: it be to be * there! *|||
w: it be to be * there! Oh,|what|must|
w: it be to be * there! *|||
w: it be to be * there! *|||
 [Ge]2 [Ge]>[Ge] [Bd]2 [Ac]>[Ac] | ([GB]4 [EG]2) [GB]2 | [Ac]2 [Ac]>[Ac] [GB]2 [EG]>[EG] | %13
w: |||
w: it be to be there, Oh,|what * must|it be to be there; With|
w: |||
w: |||
 [DF]6 ([EG][GB]) | [Ge]2 [Ge]>[Ge] [GB]2 [GB]>[GB] | [Ac]>[Ac] [Ac]>[Ad] [Ae]2 ([Bd][Ac]) | %16
w: |||
w: Je- sus *|our friend, All e- ter- ni-|ty to spend, Oh, what must *|
w: |||
w: |||
 (Be) [EG]>[Ec] [EB]2 [DA]>[DF] | E6 |] %18
w: ||
w: it * be to be there. *||
w: ||
w: ||
V:2
 E2 | x8 | x6 E2 | x8 | x8 | x8 | x8 | x8 | x6 || x2 | x8 | x8 | x8 | x8 | x8 | x8 | G2 x6 | E6 |] %18
w: talk||ry||||||||||||||||
w: talk||decked||||||||||||||||
w: talk||row,||||||||||||||||
w: talk||which||||||||||||||||
V:3
 (G,>A,) | [E,B,]2 [E,B,]>[E,B,] [B,,B,]2 [B,,B,]>[B,,B,] | [E,B,]6 (B,>A,) | %3
w: ~ *|~ ~ ~ ~ ~ ~|~ ~ *|
 [E,G,]2 [E,G,]>[E,G,] [D,B,]2 [E,B,]>[E,B,] | [B,,B,]6 [E,B,]2 | %5
w: ~ ~ ~ ~ ~ ~|~ ~|
 [E,E]2 [E,E]>[E,E] [E,B,]2 [E,E]>[E,E] | [A,E]6 [A,E]2 | %7
w: ~ ~ ~ ~ ~ ~|~ ~|
 [B,E]2 [B,E]>[B,E] (EB,) [B,,B,]>[B,,B,] | [E,B,]6 || [E,B,]2 | %10
w: ~ ~ ~ ~ * ~ ~|~|~|
 [E,B,]2 [E,B,]>[E,B,] [B,,B,]2 [B,,B,]>[B,,B,] | [E,B,]2 [E,B,]>[E,B,] [E,B,]2 [E,E]2 | %12
w: ~ ~ ~ ~ to be|there, * * * *|
 [A,E]2 [A,E]>[A,E] [E,E]2 [E,B,]>[E,B,] | [B,,B,]6 [E,B,]2 | %14
w: ||
 [E,B,]2 [E,B,]>[E,B,] [E,E]2 [E,E]>[E,E] | [A,E]>[A,E] [A,E]>[A,D] [A,C]2 [A,E]2 | %16
w: ||
 (EB,) [E,B,]>[E,A,] [B,,G,]2 [B,,F,]>[B,,A,] | [E,G,]6 |] %18
w: ||
V:4
 E,2 | x8 | x6 E,2 | x8 | x8 | x8 | x8 | x4 B,,2 x2 | x6 || x2 | x8 | x8 | x8 | x8 | x8 | x8 | %16
w: ~||~|||||~|||||||||
 E,2 x6 | x6 |] %18
w: ||

